X: 43506
T: Yetts O' Muckhart
R: reel
M: 4/4
K: Amajor
|:e|A/A/A cB A/A/Aa2|f2ec fBBa|A/A/A cB A/A/Aa2|f2ec eAA:|
|:f|ecae f2ef|A/A/A ae fBBf|ecae fafe|afec eAA:|

